X:1
T:Geordie
T: Child Ballads (sec.XVI) 
T:Folk Song from Somerset
T:by IMSLP?
T:by IMSLP?
Z:by IMSLP?
%%score 1 { ( 2 4 ) | ( 3 5 ) }
L:1/8
Q:1/4=110
M:4/4
K:C
V:1 treble nm="Voice"
V:2 treble nm="Pianoforte"
V:4 treble 
V:3 bass 
V:5 bass 
V:1
"^Andante con moto" z2 | z8 | z8 | z8 | z6 |]S!p! E2 | c2 c2 B2 B2 | A2 (AG) E2"^cresc." B2 | %8
w: |||||Come,|bri\- dle me my|milk\- white * steed, Come,|
 c2 d2 e2 (ed) | (B2!mf! c2) d2 B2 | c2 d2 e2 e e | d2 (BA) G2"^dim." A2 |!p! (G2 E2) E2 D2 | %13
w: bri\- dle me my *|po- * ny, That|I may ride to fair|Lon\- don * town To|plead * for my|
 (E2 A2) A4- | A6 z2 | z6!D.S.! |] %16
w: Geor * die~....|||
V:2
 (E2 | c2 c2 [DB]4 | [CEA]2 [B,DG]2 [A,CE]2) ([A,B,]2 | [G,C]2 [B,D]2 [CE]2 F2 | !fermata![CA]6) |] %5
 z2 | z (CEA) (A2 G2) | z (CB,G) z C"_cresc."DB | (Ec) (GB) (Ee) (ed) | (B3 A) z (FAd) | %10
 z [EAc]2 [DEB]2 [CEA]2 [B,EG] | z F3 ED"_dim." C2 | E2 z2 (E2 D2) | E6 z2 | ([B,-D]4 [B,A]4) | %15
 !arpeggio!!fermata![CAe]6 |] %16
V:3
 z2 |!<(! [A,,E,]4- [A,,E,]4-!<)! | [A,,E,]2 z2 z2!>(! (F,2!>)! | E,2 D,2 C,2 ((D,2 | %4
 !fermata![A,,E,]6))) |] z2 | A,,4 E,3 E,, | F,,2 G,,2 A,,2 !>!A,2- | A,2 G,2 C,2 F,2 | %9
 D2 C2 B,2 D,2 | (A,,2 B,,2 C,>D, E,2) | A,4 G,2 A,2 | [C,G,]2 z2 [F,A,]4 | [A,,E,]6 z2 | %14
!<(! [A,,F,]4-!>(! [A,,F,]4!<)!!>)! | !fermata![A,,E,]6 |] %16
V:4
 x2 | [CE]4 DE F2 | x8 | x6 B,A, | x6 |] x2 | x4 [B,E]4 | x8 | E2 G2 E2 A2 | B(F F2) x4 | x8 | %11
 x D2 C B,2 A,2 | C2 z2 B,4 | x8 | x8 | x6 |] %16
V:5
 x2 | x8 | x8 | x8 | x6 |] x2 | x8 | x8 | x8 | x8 | x8 | F,2 D,2 E,2 F,2 | x8 | x8 | x8 | x6 |] %16

